Newaita/actions/22/edit-find.svg

<svg height="22" viewBox="0 0 22 22" width="22" xmlns="http://www.w3.org/2000/svg"><g fill="#424242"><path d="m14.972656 13.875c-.371094.484375-.804687.914062-1.289062 1.285156l4.453125 4.453125c.179687.175781.464843.175781.644531 0l.640625-.644531c.179687-.175781.179687-.464844 0-.640625zm0 0"/><path d="m9.550781 1.992188c-4.285156 0-7.730469 3.445312-7.730469 7.730468s3.445313 7.730469 7.730469 7.730469c4.285157 0 7.730469-3.445313 7.730469-7.730469s-3.445312-7.730468-7.730469-7.730468zm0 1.816406c3.273438 0 5.914063 2.636718 5.914063 5.914062 0 3.273438-2.640625 5.914063-5.914063 5.914063-3.277343 0-5.914062-2.640625-5.914062-5.914063 0-3.277344 2.636719-5.914062 5.914062-5.914062zm0 0"/></g></svg>

<svg xmlns="http://www.w3.org/2000/svg" xmlns:xlink="http://www.w3.org/1999/xlink" width="22px" height="22px" viewBox="0 0 22 22" version="1.1">
<g id="surface1">
     <defs>
  <style id="current-color-scheme" type="text/css">
   .ColorScheme-Text { color:#424242; } .ColorScheme-Highlight { color:#eeeeee; }
  </style>
 </defs>
<path style="fill:currentColor" class="ColorScheme-Text" d="M 14.972656 13.875 C 14.601562 14.359375 14.167969 14.789062 13.683594 15.160156 L 18.136719 19.613281 C 18.316406 19.789062 18.601562 19.789062 18.78125 19.613281 L 19.421875 18.96875 C 19.601562 18.792969 19.601562 18.503906 19.421875 18.328125 Z M 14.972656 13.875 "/>
     <defs>
  <style id="current-color-scheme" type="text/css">
   .ColorScheme-Text { color:#424242; } .ColorScheme-Highlight { color:#eeeeee; }
  </style>
 </defs>
<path style="fill:currentColor" class="ColorScheme-Text" d="M 9.550781 1.992188 C 5.265625 1.992188 1.820312 5.4375 1.820312 9.722656 C 1.820312 14.007812 5.265625 17.453125 9.550781 17.453125 C 13.835938 17.453125 17.28125 14.007812 17.28125 9.722656 C 17.28125 5.4375 13.835938 1.992188 9.550781 1.992188 Z M 9.550781 3.808594 C 12.824219 3.808594 15.464844 6.445312 15.464844 9.722656 C 15.464844 12.996094 12.824219 15.636719 9.550781 15.636719 C 6.273438 15.636719 3.636719 12.996094 3.636719 9.722656 C 3.636719 6.445312 6.273438 3.808594 9.550781 3.808594 Z M 9.550781 3.808594 "/>
</g>
</svg>
